X:1
T:Title
%%score { ( 1 3 ) | ( 2 4 ) }
L:1/8
Q:1/4=108
M:4/4
K:G
V:1 treble nm="Grand Piano"
V:3 treble 
V:2 bass 
V:4 bass 
V:1
 [G,B,D]2 [B,DG]>[CDA] [B,DG]4 | [A,DF]2 [FA]>[GB] [FA]4 | B2 B>B d2 c>B | A2 [^CA]>[CB] [DA]4 | %4
w: Robert~Lowry * * *||||
 [DB]2 [B,D]>[CE] [B,D]4 | [CE]2 [EG]>[^DA] [=DB]4 | d2 B>G [Ge]2 [EGc]>[CEA] | %7
w: |||
 [B,DG]2 [CDF]>[CDF] [B,DG]4 | [FA]4 z4 | G8 | [Ac]2 [GB]2 [CEA]2 [A,EG]2 | [D-G]4 D4 | %12
w: |||||
 [DB]2 [B,D]>[CE] [B,D]4 | [CE]2 [EG]>[^DA] [=DB]4 | d2 B>G [Ge]2 [EGc]>[CEA] | %15
w: |||
 [B,DG]2 [CDF]>[CDF] [B,DG]4 |] %16
w: |
V:2
 G,,2 G,,>G,, G,,4 | D,2 [D,D]>[D,D] [D,D]4 | %2
 [G,DG]2 [G,DG]>[G,DG][K:bass] [G,B,D]2 [F,A,D]>[G,D] | [D,F,D]2 [A,,E,]>[A,,G,] [D,F,]4 | %4
 [G,,G,]2 [G,,G,]>[G,,G,] [G,,G,]4 | [C,G,]2 [C,G,]>[C,G,] [G,,G,]4 | %6
 [G,B,D]2 [G,DG]>[K:bass][G,B,] [C,C]2 C,>C, | D,2 D,>D, G,,4 | D,2 D,>D, z2 A,2 | %9
 [G,B,]2 G,>G, [G,D]4 | [F,D]2 [G,D]2 C,2 ^C,2 | D,2 D,>D, [D,A,]4 | %12
 [G,,G,]2 [G,,G,]>[G,,G,] [G,,G,]4 | [C,G,]2 [C,G,]>[C,G,] [G,,G,]4 | %14
 [G,B,D]2 [G,DG]>[K:bass]B, [C,C]2 C,>C, | D,2 D,>D, G,,4 |] %16
V:3
 x8 | x8 | x8 | x8 | x8 | x8 | x8 | x8 | D2 D>D [DFA]2 [Fd]2 | d2- [B,d-]>[B,d] B4 | x8 | %11
 B,2 B,>B, F4 | x8 | x8 | x8 | x8 |] %16
V:4
 x8 | x8 | x4[K:bass] x4 | x8 | x8 | x8 | x7/2[K:bass] x9/2 | x8 | z4 D,4 | x8 | x8 | x8 | x8 | %13
 x8 | x7/2[K:bass] x9/2 | x8 |] %16

